templates/main/source/images/тостер.svg

<svg xmlns="http://www.w3.org/2000/svg" xmlns:xlink="http://www.w3.org/1999/xlink" width="27" height="26" viewBox="0 0 27 26">
  <defs>
    <path id="тостер-b" d="M9,6 L8,5 C7.44771525,4.44771525 7.44771525,3.55228475 8,3 C8.55228475,2.44771525 8.55228475,1.55228475 8,1 L7,0 L7,0"/>
    <filter id="тостер-a" width="670.7%" height="290.2%" x="-285.4%" y="-78.5%" filterUnits="objectBoundingBox">
      <feMorphology in="SourceAlpha" operator="dilate" radius=".5" result="shadowSpreadOuter1"/>
      <feOffset dy="1" in="shadowSpreadOuter1" result="shadowOffsetOuter1"/>
      <feMorphology in="SourceAlpha" radius="1" result="shadowInner"/>
      <feOffset dy="1" in="shadowInner" result="shadowInner"/>
      <feComposite in="shadowOffsetOuter1" in2="shadowInner" operator="out" result="shadowOffsetOuter1"/>
      <feGaussianBlur in="shadowOffsetOuter1" result="shadowBlurOuter1" stdDeviation="1.5"/>
      <feColorMatrix in="shadowBlurOuter1" values="0 0 0 0 0.729411765   0 0 0 0 0.0705882353   0 0 0 0 0.0705882353  0 0 0 0.5 0"/>
    </filter>
    <path id="тостер-d" d="M15,6 L14,5 C13.4477153,4.44771525 13.4477153,3.55228475 14,3 C14.5522847,2.44771525 14.5522847,1.55228475 14,1 L13,0 L13,0"/>
    <filter id="тостер-c" width="670.7%" height="290.2%" x="-285.4%" y="-78.5%" filterUnits="objectBoundingBox">
      <feMorphology in="SourceAlpha" operator="dilate" radius=".5" result="shadowSpreadOuter1"/>
      <feOffset dy="1" in="shadowSpreadOuter1" result="shadowOffsetOuter1"/>
      <feMorphology in="SourceAlpha" radius="1" result="shadowInner"/>
      <feOffset dy="1" in="shadowInner" result="shadowInner"/>
      <feComposite in="shadowOffsetOuter1" in2="shadowInner" operator="out" result="shadowOffsetOuter1"/>
      <feGaussianBlur in="shadowOffsetOuter1" result="shadowBlurOuter1" stdDeviation="1.5"/>
      <feColorMatrix in="shadowBlurOuter1" values="0 0 0 0 0.729411765   0 0 0 0 0.0705882353   0 0 0 0 0.0705882353  0 0 0 0.5 0"/>
    </filter>
    <path id="тостер-f" d="M12,6 L11,5 C10.4477153,4.44771525 10.4477153,3.55228475 11,3 C11.5522847,2.44771525 11.5522847,1.55228475 11,1 L10,0 L10,0"/>
    <filter id="тостер-e" width="670.7%" height="290.2%" x="-285.4%" y="-78.5%" filterUnits="objectBoundingBox">
      <feMorphology in="SourceAlpha" operator="dilate" radius=".5" result="shadowSpreadOuter1"/>
      <feOffset dy="1" in="shadowSpreadOuter1" result="shadowOffsetOuter1"/>
      <feMorphology in="SourceAlpha" radius="1" result="shadowInner"/>
      <feOffset dy="1" in="shadowInner" result="shadowInner"/>
      <feComposite in="shadowOffsetOuter1" in2="shadowInner" operator="out" result="shadowOffsetOuter1"/>
      <feGaussianBlur in="shadowOffsetOuter1" result="shadowBlurOuter1" stdDeviation="1.5"/>
      <feColorMatrix in="shadowBlurOuter1" values="0 0 0 0 0.729411765   0 0 0 0 0.0705882353   0 0 0 0 0.0705882353  0 0 0 0.5 0"/>
    </filter>
    <rect id="тостер-h" width="3" height="3" x="21" y="9" rx="1.5"/>
    <filter id="тостер-g" width="433.3%" height="433.3%" x="-166.7%" y="-133.3%" filterUnits="objectBoundingBox">
      <feOffset dy="1" in="SourceAlpha" result="shadowOffsetOuter1"/>
      <feGaussianBlur in="shadowOffsetOuter1" result="shadowBlurOuter1" stdDeviation="1.5"/>
      <feColorMatrix in="shadowBlurOuter1" values="0 0 0 0 0.729411765   0 0 0 0 0.0705882353   0 0 0 0 0.0705882353  0 0 0 0.404747596 0"/>
    </filter>
  </defs>
  <g fill="none" fill-rule="evenodd" transform="translate(0 3)">
    <rect width="2" height="4" x="21" y="16" fill="#000" opacity=".152"/>
    <path fill="#FFF" stroke="#212121" d="M16.9827943,8.5 L5.01720565,8.5 C4.23586502,8.5 3.50185696,8.75898015 2.90952136,9.20577973 C2.31718575,9.65257931 1.86652261,10.2871983 1.65187183,11.0384761 L1.44228592,11.7720267 C0.81714601,13.9600164 0.5,16.2244564 0.5,18.5 L1,21.5 L21.5,21 L21.5,18.5 C21.5,16.2244564 21.182854,13.9600164 20.5577141,11.7720267 L20.3481282,11.0384761 C20.1334774,10.2871983 19.6828142,9.65257931 19.0904786,9.20577973 C18.498143,8.75898015 17.764135,8.5 16.9827943,8.5 Z"/>
    <g stroke-linecap="square" transform="matrix(-1 0 0 1 16 0)">
      <use fill="#000" filter="url(#тостер-a)" xlink:href="#тостер-b"/>
      <use stroke="#BA1212" xlink:href="#тостер-b"/>
    </g>
    <g stroke-linecap="square" transform="matrix(-1 0 0 1 28 0)">
      <use fill="#000" filter="url(#тостер-c)" xlink:href="#тостер-d"/>
      <use stroke="#BA1212" xlink:href="#тостер-d"/>
    </g>
    <g stroke-linecap="square" transform="matrix(-1 0 0 1 22 0)">
      <use fill="#000" filter="url(#тостер-e)" xlink:href="#тостер-f"/>
      <use stroke="#BA1212" xlink:href="#тостер-f"/>
    </g>
    <use fill="#000" filter="url(#тостер-g)" xlink:href="#тостер-h"/>
    <use fill="#BA1212" xlink:href="#тостер-h"/>
    <rect width="5" height="1" x="2" y="22" fill="#000" opacity=".152"/>
    <rect width="5" height="1" x="15" y="22" fill="#000" opacity=".152"/>
    <rect width="16" height="1" x="3" y="18" fill="#BA1212"/>
  </g>
</svg>

<svg xmlns="http://www.w3.org/2000/svg" xmlns:xlink="http://www.w3.org/1999/xlink" width="27" height="26" viewBox="0 0 27 26"><defs><filter id="тостер-a" width="670.7%" height="290.2%" x="-285.4%" y="-78.5%" filterUnits="objectBoundingBox"><feMorphology in="SourceAlpha" operator="dilate" radius=".5" result="shadowSpreadOuter1"/><feOffset dy="1" in="shadowSpreadOuter1" result="shadowOffsetOuter1"/><feMorphology in="SourceAlpha" radius="1" result="shadowInner"/><feOffset dy="1" in="shadowInner" result="shadowInner"/><feComposite in="shadowOffsetOuter1" in2="shadowInner" operator="out" result="shadowOffsetOuter1"/><feGaussianBlur in="shadowOffsetOuter1" result="shadowBlurOuter1" stdDeviation="1.5"/><feColorMatrix in="shadowBlurOuter1" values="0 0 0 0 0.729411765 0 0 0 0 0.0705882353 0 0 0 0 0.0705882353 0 0 0 0.5 0"/></filter><filter id="тостер-c" width="670.7%" height="290.2%" x="-285.4%" y="-78.5%" filterUnits="objectBoundingBox"><feMorphology in="SourceAlpha" operator="dilate" radius=".5" result="shadowSpreadOuter1"/><feOffset dy="1" in="shadowSpreadOuter1" result="shadowOffsetOuter1"/><feMorphology in="SourceAlpha" radius="1" result="shadowInner"/><feOffset dy="1" in="shadowInner" result="shadowInner"/><feComposite in="shadowOffsetOuter1" in2="shadowInner" operator="out" result="shadowOffsetOuter1"/><feGaussianBlur in="shadowOffsetOuter1" result="shadowBlurOuter1" stdDeviation="1.5"/><feColorMatrix in="shadowBlurOuter1" values="0 0 0 0 0.729411765 0 0 0 0 0.0705882353 0 0 0 0 0.0705882353 0 0 0 0.5 0"/></filter><filter id="тостер-e" width="670.7%" height="290.2%" x="-285.4%" y="-78.5%" filterUnits="objectBoundingBox"><feMorphology in="SourceAlpha" operator="dilate" radius=".5" result="shadowSpreadOuter1"/><feOffset dy="1" in="shadowSpreadOuter1" result="shadowOffsetOuter1"/><feMorphology in="SourceAlpha" radius="1" result="shadowInner"/><feOffset dy="1" in="shadowInner" result="shadowInner"/><feComposite in="shadowOffsetOuter1" in2="shadowInner" operator="out" result="shadowOffsetOuter1"/><feGaussianBlur in="shadowOffsetOuter1" result="shadowBlurOuter1" stdDeviation="1.5"/><feColorMatrix in="shadowBlurOuter1" values="0 0 0 0 0.729411765 0 0 0 0 0.0705882353 0 0 0 0 0.0705882353 0 0 0 0.5 0"/></filter><filter id="тостер-g" width="433.3%" height="433.3%" x="-166.7%" y="-133.3%" filterUnits="objectBoundingBox"><feOffset dy="1" in="SourceAlpha" result="shadowOffsetOuter1"/><feGaussianBlur in="shadowOffsetOuter1" result="shadowBlurOuter1" stdDeviation="1.5"/><feColorMatrix in="shadowBlurOuter1" values="0 0 0 0 0.729411765 0 0 0 0 0.0705882353 0 0 0 0 0.0705882353 0 0 0 0.404747596 0"/></filter><path id="тостер-b" d="M9 6L8 5a1.414 1.414 0 010-2 1.414 1.414 0 000-2L7 0"/><path id="тостер-d" d="M15 6l-1-1a1.414 1.414 0 010-2 1.414 1.414 0 000-2l-1-1"/><path id="тостер-f" d="M12 6l-1-1a1.414 1.414 0 010-2 1.414 1.414 0 000-2l-1-1"/><rect id="тостер-h" width="3" height="3" x="21" y="9" rx="1.5"/></defs><g fill="none" fill-rule="evenodd" transform="translate(0 3)"><path fill="#000" opacity=".152" d="M21 16h2v4h-2z"/><path fill="#FFF" stroke="#212121" d="M16.983 8.5H5.017a3.495 3.495 0 00-3.365 2.538l-.21.734A24.49 24.49 0 00.5 18.5l.5 3 20.5-.5v-2.5c0-2.276-.317-4.54-.942-6.728l-.21-.734A3.495 3.495 0 0016.983 8.5z"/><g stroke-linecap="square" transform="matrix(-1 0 0 1 16 0)"><use fill="#000" filter="url(#тостер-a)" xlink:href="#тостер-b"/><use stroke="#BA1212" xlink:href="#тостер-b"/></g><g stroke-linecap="square" transform="matrix(-1 0 0 1 28 0)"><use fill="#000" filter="url(#тостер-c)" xlink:href="#тостер-d"/><use stroke="#BA1212" xlink:href="#тостер-d"/></g><g stroke-linecap="square" transform="matrix(-1 0 0 1 22 0)"><use fill="#000" filter="url(#тостер-e)" xlink:href="#тостер-f"/><use stroke="#BA1212" xlink:href="#тостер-f"/></g><use fill="#000" filter="url(#тостер-g)" xlink:href="#тостер-h"/><use fill="#BA1212" xlink:href="#тостер-h"/><path fill="#000" opacity=".152" d="M2 22h5v1H2zm13 0h5v1h-5z"/><path fill="#BA1212" d="M3 18h16v1H3z"/></g></svg>
